X: 4026
T: GLEN TILT LODGE
R: Reel.
%R: reel
B: James Kerr "Merry Melodies" v.4 p.05 #26
Z: 2016 John Chambers <jc:trillian.mit.edu>
M: C|
L: 1/8
K: A
uB |\
Aaae feae | faac BcdB |\
Aaae feae | (f/g/a) ec (B2A) ::\
B |\
cAAe A/A/A e2 |
dfec BcdB |\
[1 cAAe A/A/A e2 | dfec (B2A) :|\
[2 caga faea | dbca (B2A) |]

%%sep 1 1 500
%%sep 1 1 500

